X:5084
T:Cuchulainn's Courtship of Emer
M:4/4
R:Hornpipe
L:1/8
Q:180
C:Aidan Crossey
K:G
|:G2 B2 d2 B2|ed^cd B2B=c|dcBc AcBA|GABc dcBA|
G2 B2 d2 B2|ed^cd B2B=c|dcBc AcBA|G2 GF G4:|| 
|:FGAB cBAG|FGAB cd/c/BA|GABc ed^cd|ed^cd g2fg|
agfe/f/ gfed|gece d2ef|gece dBGB|AGFA G4:||
